!!!COM:	Busnoys, Antoine
!!!CDT:	~1430///-1492/11/06
!!!OTL:	C'est vous en qui j'ay esperance
!!!AGN:	Song; Chanson
!!!SCT:	Bus3013
!!!SCA:	Bus3013
!!!voices:	3
**kern	**kern	**kern
*Ivox	*Ivox	*Ivox
*staff3	*staff2	*staff1
*I"Contra	*I"Tenor	*I"Superius
*I'C	*I'T	*I'S
*>[A,B,B1,B,B2]	*>[A,B,B1,B,B2]	*>[A,B,B1,B,B2]
*>A	*>A	*>A
*clefGv2	*clefGv2	*clefG2
*k[b-]	*k[b-]	*k[]
*M3/1	*M3/1	*M3/1
*met(O)	*met(O)	*met(O)
=1-	=1-	=1-
!!LO:TX:Z=12:t=Virelai
1A	1.A	0.r
2F	.	.
2G	2B-	.
1E	1c	.
=2	=2	=2
0D	1d	1.a
.	1f	.
.	.	2b-i
1A	1e	1cc
=3	=3	=3
1.B-	0d	0dd
2G	.	.
1G	[1d	1b-i
=4	=4	=4
1D	1d]	1a
0F	1.c	1a
.	.	1a
.	2B-	.
=5	=5	=5
1G	2G	1b-i
.	1d	.
1r	.	2a
.	2e	2.cc
1F	2.f	.
.	.	4b-i
.	.	4a
.	4e	4g
=6	=6	=6
2G	2d	2b-i
2A	1c	2.a
2F	.	.
.	.	4g
2G	2B-	1g
1D	1A	.
.	.	2f#i
=7	=7	=7
1.E-i	0G	0g
4D	.	.
4C	.	.
1BB-	1G	1r
=8	=8	=8
0AA	1A	1cc
.	1A	1cc
1r	1A	1cc
=9	=9	=9
2.G	1G	1b-i
4A	.	.
2B-	1E	1g
1c	.	.
.	1F	1a
[2A	.	.
=10	=10	=10
4A]	2r	1.b-i
4G	.	.
2.B-	2.G	.
4A	4D	.
1d	2F	2a
.	1E	1g
2c#i	.	.
=11	=11	=11
2d	2D	1f
1c	1A	.
.	.	2e
2B-	2B-	2d
1A	2c	1e
.	4d	.
.	4e	.
=12	=12	=12
2r	1f	1d
2D	.	.
2A	2e	1r
2B-	2d	.
2c	1e	1cc
4d	.	.
4e	.	.
=13	=13	=13
0f	0f	2.dd
.	.	4cc
.	.	2b-i
.	.	1a
2F	1r	.
2G	.	4g
.	.	4f
=14	=14	=14
1A	1c	1e
1.D	2.d	1.d
.	4c	.
.	2B-	.
2E	[2A	2c
=15	=15	=15
1F	2A]	0c
.	4G	.
.	4F	.
1G	1E	.
[1A	2.D	[1f
.	4E	.
=16	=16	=16
2A]	2F	2f]
2B-	2G	2e
2c	2A	2f
1d	2.B-	2.g
.	4A	4d
2D	[2d	2f
=17	=17	=17
1A	2d]	1e
.	2c#i	.
0D;	0d;	0d;
=18	=18	=18
1r	1r	1r
1D	1d	1a
1A	1c	1a
=19	=19	=19
1G	1d	1b
1.F	1.A	1.cc
2G	[2e	2b
=20	=20	=20
0E	2e]	0g
.	4d	.
.	4c	.
.	2Bni	.
.	2.c	.
[1F	.	1r
.	4Bni	.
.	[2d	.
=21	=21	=21
1F]	4d]	1a
.	4c	.
.	4Bni	.
.	4A	.
1G	1G	1b
2r	2A	2cc
2G	[2B-i	[2dd
=22	=22	=22
2.d	4B-]	4dd]
.	4c	4cc
.	1d	4b-i
4c	.	4a
2B-	.	2b-i
2.A	1e	1cc
4G	.	.
2A	2c	[2a
=23	=23	=23
1E	1B-	2a]
.	.	2g
2.F	1A	2a
.	.	4g
4G	.	4f
1A	1r	2e
.	.	[2f
=24	=24	=24
1D	1.A	2f]
.	.	4e
.	.	4d
2.AA	.	1c
.	4G	.
4BB-	4F	.
2C	2E	1r
[2D	2D	.
=25	=25	=25
2D]	1E	1r
2C#i	.	.
1D	1D	1.a
1r	2.AA	.
.	.	4g
.	4BB-	4f
=26	=26	=26
1r	2C	2e
.	1D	2d
1r	.	1e
.	2C#i	.
[1A	2.D	1d
.	4E	.
=27	=27	=27
2A]	2F	1r
2G	1G	.
2B-	.	1e
2c	2E	.
[1d	1D	2.f
.	.	4e
=28	=28	=28
2d]	1r	2f
1.e	.	1g
.	1c	.
.	.	2e
1f	[1d	2d
.	.	[2f
=29	=29	=29
1d	2d]	2f]
.	4c	4e
.	4B-	4d
1.e	2A	2c
.	4G	2B-i
.	4F	.
.	2E	2c
[2A	[2F	[2d
=30	=30	=30
4A]	4F]	4d]
4B-	4G	4e
2.c	2.A	2.f
4d	4D	4g
4A	2F	2a
2d	.	.
.	2E	2g
4c	.	.
[2d	[2D	[2f
=31	=31	=31
4d]	4D]	4f]
4c	8EL	4e
.	8FJ	.
2.B-	2.G	2.e
4A	4D	4d
1A	2F	1d
.	1E	.
2G	.	2c#i
=32	=32	=32
0.Al	0.Dl	0.dl
!!LO:LB:i:g=z
=33||	=33||	=33||!|:
*>B	*>B	*>B
*clefF4	*clefGv2	*clefG2
*M2/1	*M2/1	*M2/1
*met(C|)	*met(C|)	*met(C|)
0D	1.d	0r
.	4c	.
.	4d	.
=34	=34	=34
1G	2e	0r
.	1d	.
1G	.	.
.	4c	.
.	4B-	.
=35	=35	=35
1F	1A	1.a
[1D	[1d	.
.	.	4g
.	.	4a
=36	=36	=36
2D]	1d]	2b-i
2E	.	1a
2F	2c	.
2G	2B-	4g
.	.	4f
=37	=37	=37
1A	1c	1e
1F	1d	1r
=38	=38	=38
0D	1r	0a
.	1f	.
=39	=39	=39
1r	1e	1bni
1AA	1e	1cc
=40	=40	=40
1BB-	1d	1dd
2.GG	1d	1dd
4AA	.	.
=41	=41	=41
1BB-	1.G	1b-i
1BB-	.	1b-i
.	2D	.
=42	=42	=42
1AA	1E	1.cc
1AA	1F	.
.	.	4b-i
.	.	4a
=43	=43	=43
1GG	1G	2.b-i
.	.	4cc
1r	1G	2b-i
.	.	4a
.	.	4g
=44	=44	=44
2.D	1.A	0f
4E	.	.
2F	.	.
2G	2B-	.
=45	=45	=45
2E	2c	1r
1D	1d	.
.	.	1f
2E	2c	.
=46	=46	=46
2F	2A	1f
2G	2B-	.
2A	2A	1f
2D	[2d	.
=47	=47	=47
2.F	2d]	1f
.	4c	.
4G	4B-	.
1D	1A	1f
=48	=48	=48
1E-i	1r	1.g
1C	1E	.
.	.	4f
.	.	4e
=49	=49	=49
1BB-	1F	1d
1BB-	1G	1d
=50	=50	=50
1.AA	1.A	0c
2BB-	4G	.
.	4F	.
=51	=51	=51
2C	2E	1r
2D	2.F	.
2E	.	1c
.	4G	.
[2F	[2A	.
=52	=52	=52
4F]	4A]	1c
4G	4G	.
1A	2F	.
.	1E	1c
2G	.	.
=53	=53	=53
2B-	1D	1f
2.A	.	.
.	2r	1f
4B-	.	.
[2c	[2A	.
=54	=54	=54
4c]	2A]	1.e
4d	.	.
2B-	2B-	.
1A	2c	.
.	2d	2f
=55	=55	=55
1G	1e	1g
[1F	[1f	[1a
=56	=56	=56
2F]	2f]	2a]
2G	4e	2b-i
.	4d	.
[1A	2c	2a
.	2B-	4g
.	.	4f
!!LO:REP:start=1
=57	=57	=57
*>B1	*>B1	*>B1
1A]N	1cN	1eN
!!LO:REP:end=1
!!LO:REP:start=2
=58:|!	=58:|!	=58:|!
*>B2	*>B2	*>B2
1A	1c	1e
1B-	[1d	1d
!!LO:REP:open=2
=59	=59	=59
0A	1d]	0e
.	1c#i	.
=60	=60	=60
0Dl	0dl	0dl
=||	=||	=||
*-	*-	*-
!!!RDF**kern: l=long note in original notation
!!!RDF**kern: i=editorial accidental
!!!RDF**kern: N=signum congruentiae
!!!ENC:	Chris Gage 04-02-2015
!!!END:	2015/05/01/
!!!EED:	Jesse Rodin
!!!EEV:	2015/05/10/
!!!ONB:	Translated from MusicXML and edited on 2015/05/10/ by Craig Sapp
!!muse2ps: C^@{COM}^i2I150v95,95,150Q16
